X:1
T:Proverbio' e fatt'antinigo
T:Horatio Vecchi
T:Source : La Veglie di Siena---Venetia---Ang.Gardano---1604. Editor : André Vierendeels (04/04/17).
T:Notes Original clefs : C4, C4, F4 Original note values have been quartered in 3-beat measures "Imitatione del Venitiano"
T:Proverbio' e fatt'antinigo
T:©
T:©
T:©
T:©
T:©
T:©
C:Horatio Vecchi
Z:©
%%score [ 1 2 3 ]
L:1/8
Q:1/4=99
M:2/2
K:F
V:1 treble-8 nm="Tenor 1" snm="T 1"
V:2 treble-8 nm="Tenor 2" snm="T 2"
V:3 bass nm="Bass" snm="B"
V:1
 z4 z2 A2 | c8 | c4 z2 d2 | c6 c2 | d2 e2 fedc | dcBA BAGF | GF F4 E2 | F4 c2 c2 | c4 d2 d2 | %9
w: Pro-|ver-|bio, pro-|ver- bio'e|fat- t'an- ti- ni ni ni|ni ni ni ni ni ni ni ni|ni ni ni ni-|go, chi no|ve- de Ve-|
 c6 c2 | c4 B2 B2 | G4 z2 EF | G4 z2 EF | G2 F4 E2 | F8 | z8 | z8 | z8 | z8 | c2 c4 c2 | c2 c2 d4 | %21
w: ni- si-|a, nol ap-|pre ne ne|ne ne ne|ne ne- si-|a,|||||sa- ra fra|vu'e- fra mi,|
 B8 | B2 A2 G4 | c2 A4 A2 | G2 G2 A4 | z2 c2 dd B2 | cc c2 dd e2 | f4 z4 | z4 B4- | B2 AB G2 G2 | %30
w: pa-|s'e pia- ser|che tal za-|mai no fu,|di- se- u de|no o di- de- u de|si,|O|_ be- ne- det- to|
 A4 B4- | B2 AB G2 G2 | A4 z4 | z2 F2 G2 F2 | B2 B2 A4 ||[M:6/4] A2 B2 c2 d4 d2 | c6- c2 A4 | %37
w: si, O|_ be- ne- det- to|si,|che so- lum|per un si,|cre- ao xe'l mon- do,|lar- * go,|
 c6- c2 A4 | c3 B c2 A2 B2 c2 | B3 A B2 G2 A2 B2 | A3 G A2 F2 G2 A2 | G3 F G2 F2 G2 A2 | %42
w: lun- * go|to no no no no no|no no no no no no|no no no no no no|no no no no no no|
 B3 c d2 c2 B2 A2 | G6 F2 G4 | A4 G4 G4 ||[M:2/2] A4 A4 | z2 c4 c2 | c2 d4 d2 | e2 z c BA G2- | %49
w: no no no no no no|no no no|no no no|non- do|dun- que|con sto bel|si la fi- ni- re-|
 G2 G2 !fermata!A4 |] %50
w: * mo qui.|
V:2
 z4 z2 F2 | A8 | A4 z2 B2 | A6 G2 | A2 B2 cBAG | AGFE FEDC | DCB,A, B,4 | C4 A2 A2 | A4 B2 B2 | %9
w: Pro-|ver-|bio, pro-|ver- bio'e|fat- t'an- ti- ni ni nin|ni nin ni ni ni ni ni ni|ni ni ni ni ni-|go, chi no|ve- de Ve-|
 A6 A2 | A4 F2 F2 | E2 EF G4 | z2 EF G4 | z2 EF G2 G2 | A8 | c2 cc B2 G2 | A2 B2 c2 A2 | %17
w: ni- si-|a, nol ap-|pre ne ne ne|ne ne ne|ne ne ne si-|a,|Don- ne se vu vo-|le ve- gnir con|
 B2 c2 A2 B2 | c4 z4 | A2 A4 A2 | A2 A2 B4 | G8 | G2 F2 E4 | G2 F4 F2 | D2 E2 F4 | z2 A2 GG G2 | %26
w: mi e mi con|vu,|sa- ra fra|vu'e- fra mi,|pa-|s'e pia- ser|che tal za-|mai no fu,|di- se- u de|
 FF F2 BB B2 | A4 z4 | z4 G4- | G2 FF E2 E2 | F4 G4- | G2 FF E2 E2 | F2 F2 G4 | F2 B4 A2 | G4 z4 || %35
w: no o di- de- u de|si,|O|_ be- ne- det- to|si, O|_ be- ne- det- to|si, che so-|lum per un|si,|
[M:6/4] ^F2 G2 A2 B4 B2 | A6- A2 F4 | A6- A2 F4 | A3 G A2 F2 G2 A2 | G3 F G2 _E2 F2 G2 | %40
w: cre- ao xe'l mon- do,|lar- * go,|lun- * go|to no no no no no|no no no no no no|
 F3 E F2 D2 E2 F2 | E3 D E2 D2 E2 F2 | G3 A B2 A2 G2 F2 | E6 D2 E4 | F4 D4 E4 ||[M:2/2] F4 F4 | %46
w: no no no no no no|no no no no no no|no no no no no no|no no no|no no no|non- do-|
 z2 A4 A2 | c2 =B4 B2 | c2 z A GF D2- | D2 E2 !fermata!F4 |] %50
w: dun- que|con sto bel|si la fi- ni- re-|* mo qui.|
V:3
 z4 z2 F,,2 | F,8 | F,4 z2 B,,2 | F,6 E,2 | F,2 G,2 A,G,F,E, | F,E,D,C, D,C,B,,A,, | %6
w: Pro-|ver-|bio, pro-|ver- bio'e|fat- t'an- ti- ni nin ni|ni ni ni ni ni ni ni ni|
 B,,A,,G,,F,, G,,4 | F,,4 F,2 F,2 | F,4 B,,2 B,,2 | F,6 F,2 | F,4 B,,2 B,,2 | C,8 | C,8 | C,6 C,2 | %14
w: ni ni ni ni ni-|go, chi no|ve- de Ve-|ni- si-|a, nol ap-|pre|ne|ne si-|
 F,,8 | C,2 C,C, D,2 E,2 | F,2 D,2 E,2 F,2 | G,2 E,2 F,2 D,2 | C,4 z4 | F,2 F,4 F,2 | %20
w: a,|Don- ne se vu vo-|le ve- gnir con|mi e mi con|vu,|sa- ra fra|
 F,2 F,2 B,,4 | _E,8 | _E,2 F,2 C,4 | C,2 D,4 A,,2 | B,,2 C,2 F,,4 | z2 F,2 B,B, B,2 | %26
w: vu'e- fra mi,|pa-|s'e pia- ser|che tal za-|mai non fu,|di- se- u de|
 A,A, A,2 G,G, G,2 | F,4 z4 | z4 _E,4- | E,2 F,B,, C,2 C,2 | F,,4 _E,4- | E,2 F,B,, C,2 C,2 | %32
w: no o di- de- u de|si,|O|_ be- ne- det- to|si, O|_ be- ne det- to|
 F,,4 z2 C,2 | D,4 C,2 F,2- | F,2 E,2 F,4 ||[M:6/4] D,2 G,2 F,2 B,,4 B,,2 | F,6- F,2 F,,4 | %37
w: si, che|so- lum per|_ un si,|cre- ao xe'l mon- do,|lar- * go,|
 F,6- F,2 F,,4 | F,12 | _E,12 | D,12 | C,12 | B,,6 A,,2 B,,4 | C,6 B,,2 C,4 | A,,4 B,,4 C,4 || %45
w: lun _ go|lar-|go,|lun-|go,|to no no|no no no|no no no|
[M:2/2] F,,4 F,,4 | z2 F,4 F,2 | A,2 G,4 G,2 | C,2 z F,, G,,A,, B,,2- | B,,2 C,2 !fermata!F,,4 |] %50
w: non- do|dun- que|con sto bel|si la fi- ni- re-|* mo qui.|

